X:697
%%etbk:tnset id:427,pos:4,rep:3x,ant:
%%etbk:wsite https://thesession.org/tunes/876
%%etbk:video src:ytube,cde:Swa_LUAm1Hw,desc:second tune
%%etbk:color #ffccbf
%%etbk:pldat 2016-09-16T15:45,2016-09-10T15:33,2016-09-07T17:42,2016-08-05T16:52,2016-07-21T19:40,2016-07-12T17:12,2016-07-07T16:28,2016-06-18T16:52,2016-06-16T19:28,2016-05-30T19:23,2016-05-29T14:51,2016-05-26T19:05,2016-05-25T15:53,2016-05-23T19:09,2016-05-16T15:59,2016-05-15T15:59,2016-05-14T17:49,2016-05-11T17:36,2016-04-11T18:05,2016-03-21T18:48,2016-03-20T14:44,2016-03-16T17:47,2016-03-14T18:58,2016-01-12T18:27,2016-01-10T13:51,2016-01-04T19:09,2015-12-27T14:16,2015-12-16T18:17,2015-12-13T16:35,2015-12-01T16:59,2015-11-29T14:06,2015-11-28T16:21,2015-11-26T18:55,2015-11-25T16:35,2015-11-24T18:11,2015-10-21T17:57,2015-10-20T17:58,2015-10-17T15:26,2015-10-13T17:34,2015-10-12T19:00,2015-09-29T17:08,2015-08-30T16:39,2015-08-18T17:18,2015-08-17T18:53,2015-08-14T17:22,2015-08-13T18:08,2015-08-09T14:53,2015-08-04T17:43,2015-08-01T17:24,2015-07-30T19:27,2015-07-29T18:02,2015-07-27T19:24,2015-07-25T14:37,2015-07-22T17:39,2015-07-20T19:06,2015-07-18T15:57,2015-07-17T12:02,2015-05-10T14:45,2015-05-02T16:45,2015-04-27T18:49,2015-04-25T16:32
T: Gneevgullia
Z: Piano Box Version by Martin Fleischmann
H: Created 2015-04-21 /  Last Modified 2015-10-12
R: reel
M: 4/4
L: 1/8
K: Edor
|:"e-drone""em"!1!E3F G2  EF|!3!GBAG "bm"!2!F!1!DDF|"em"!1!~E3 F !3!G2!2!G!4!B|1"bm"!5!d!4!BAd "em"!4!BEEE:|2"bm"dBAd "em"BEE!4!e||
"e-drone""em"!2!efed !2!c!1!deg|"D"!3!fd ~d2 dfaf|"em"!4!g2e!1!d !2!(3Bcd !5!ec|"bm"!4!dBAd "em"BEE!4!e|
"em"efed cdeg|"D"fd dc df!5!af|!5!bf!5!af !4!gged | (3Bcd Ad "em"BEEF||
|:"G"!1!G!2!B!3!d!5!g !5!g!4!e!3!d!2!B|"D"!3!A!1!DDD !2!F2!3!A!5!c|"em"!4!B!1!EEE !2!G2 !2!G!4!B|"bm"!5!d!4!BAd "em"!4!B!1!EEE:|


